packages/kaspersky-hexa-ui-icons/src/iconsSVGs/64x42/FlagPg.svg

<svg xmlns="http://www.w3.org/2000/svg" width="64" height="42" fill="none" viewBox="0 0 64 42"><g clip-path="url(#a)"><rect width="64" height="42" fill="#fff" rx="5"/><path fill="#262626" d="M0 0h64v42H0z"/><path fill="#e8283f" fill-rule="evenodd" d="M0 0h64v42z" clip-rule="evenodd"/><path fill="#fff" fill-rule="evenodd" d="m16.6 35-1.98.58.58-1.98-.58-1.98 1.98.58 1.98-.58L18 33.6l.58 1.98zm0-16.8-1.98.58.58-1.98-.58-1.98 1.98.58 1.98-.58L18 16.8l.58 1.98zm-7 7-1.98.58.58-1.98-.58-1.98 1.98.58 1.98-.58L11 23.8l.58 1.98zm12.6-1.4-1.98.58.58-1.98-.58-1.98 1.98.58 1.98-.58-.58 1.98.58 1.98z" clip-rule="evenodd"/><path fill="#ffd84e" fill-rule="evenodd" d="M42.2087 19.4576c-.3352-.2012-.6069-.6749-.6069-1.054v-2.5803c0-.3809-.2741-.5984-.6888-.4601l-1.5923.5307c-.3804.1268-.9629.1383-1.3776 0l-1.5922-.5307c-.3804-.1268-.4227-.3893-.0819-.5938l3.7359-2.2415c.3352-.2011.5156-.6382.3773-1.053l-.5307-1.5922c-.1268-.3804.0444-.5975.4592-.4592l1.5922.5307c.3804.1268.8485-.0365 1.053-.3773l2.2415-3.7359c.2011-.3352.4555-.3328.5938.0819l.5307 1.5922c.1268.3804.1383.963 0 1.3776l-.5307 1.5923c-.1268.3804.0811.6888.4601.6888h2.5803c.3809 0 .8494.2661 1.0539.6069l2.2415 3.7359c.2012.3352.0394.6719-.324.7446l-3.5733.7146c-.3801.0761-.7532.4625-.8259.8259l-.7146 3.5733c-.0761.3801-.4038.5286-.7446.3241z" clip-rule="evenodd"/></g><defs><clipPath id="a"><rect width="64" height="42" fill="#fff" rx="5"/></clipPath></defs></svg>

<svg width="64" height="42" viewBox="0 0 64 42" fill="none" xmlns="http://www.w3.org/2000/svg">
<g clip-path="url(#clip0_37941_2330)">
<rect width="64" height="42" rx="5" fill="white"/>
<rect width="64" height="42" fill="#262626"/>
<path fill-rule="evenodd" clip-rule="evenodd" d="M0 0H64V42L0 0Z" fill="#E8283F"/>
<path fill-rule="evenodd" clip-rule="evenodd" d="M16.6 34.9999L14.6201 35.5798L15.2 33.5999L14.6201 31.62L16.6 32.1999L18.5799 31.62L18 33.5999L18.5799 35.5798L16.6 34.9999Z" fill="white"/>
<path fill-rule="evenodd" clip-rule="evenodd" d="M16.6 18.1999L14.6201 18.7798L15.2 16.7999L14.6201 14.82L16.6 15.3999L18.5799 14.82L18 16.7999L18.5799 18.7798L16.6 18.1999Z" fill="white"/>
<path fill-rule="evenodd" clip-rule="evenodd" d="M9.59993 25.2L7.62003 25.7799L8.19993 23.8L7.62003 21.8201L9.59993 22.4L11.5798 21.8201L10.9999 23.8L11.5798 25.7799L9.59993 25.2Z" fill="white"/>
<path fill-rule="evenodd" clip-rule="evenodd" d="M22.2 23.8001L20.2201 24.38L20.8 22.4001L20.2201 20.4202L22.2 21.0001L24.1799 20.4202L23.6 22.4001L24.1799 24.38L22.2 23.8001Z" fill="white"/>
<path fill-rule="evenodd" clip-rule="evenodd" d="M42.2087 19.4576C41.8735 19.2564 41.6018 18.7827 41.6018 18.4036L41.6018 15.8233C41.6018 15.4424 41.3277 15.2249 40.913 15.3632L39.3207 15.8939C38.9403 16.0207 38.3578 16.0322 37.9431 15.8939L36.3509 15.3632C35.9705 15.2364 35.9282 14.9739 36.269 14.7694L40.0049 12.5279C40.3401 12.3268 40.5205 11.8897 40.3822 11.4749L39.8515 9.8827C39.7247 9.50228 39.8959 9.28525 40.3107 9.4235L41.9029 9.95424C42.2833 10.081 42.7514 9.91772 42.9559 9.57691L45.1974 5.84103C45.3985 5.50583 45.6529 5.50817 45.7912 5.9229L46.3219 7.51514C46.4487 7.89555 46.4602 8.47802 46.3219 8.89275L45.7912 10.485C45.6644 10.8654 45.8723 11.1738 46.2513 11.1738H48.8316C49.2125 11.1738 49.681 11.4399 49.8855 11.7807L52.127 15.5166C52.3282 15.8518 52.1664 16.1885 51.803 16.2612L48.2297 16.9758C47.8496 17.0519 47.4765 17.4383 47.4038 17.8017L46.6892 21.375C46.6131 21.7551 46.2854 21.9036 45.9446 21.6991L42.2087 19.4576Z" fill="#FFD84E"/>
</g>
<defs>
<clipPath id="clip0_37941_2330">
<rect width="64" height="42" rx="5" fill="white"/>
</clipPath>
</defs>
</svg>
